**kern	**kern	**dynam
*part1	*part1	*part1
*staff2	*staff1	*
*I"Piano	*	*
*clefF4	*clefG2	*
*k[b-e-a-d-]	*k[b-e-a-d-]	*
=1	=1	=1
*^	*	*
8r	(4.AA-	(4A- 4c 4f	.
(8FL	.	.	.
8CJ)	.	8A- 8c 8f	<
=	=	=	=
8r	4.AAn	4f 4dd- 4ff	.
(8AnL	.	.	.
8FJ)	.	8f 8cc 8ee-	[
=	=	=	=
8r	4BB-	4f 4b- 4dd-	>
4F	.	.	.
.	8C	8e- 8an 8cc	.
=	=	=	=
8r	4D-	4d- 4f 4b-	.
4F	.	.	.
.	8Dn)	8c-X) 8f 8a-	]
=	=	=	=
8rBB	4.EE-	(4.cn 4.e- 4.a-	mp <
(8A-L	.	.	.
8E-J)	.	.	.
=	=	=	=
8rBB	4.EE-	4.c-X 4.dn 4.f	.
(8A-L	.	.	.
8FJ)	.	.	.
=	=	=	=
8r	4.EE-	4.e- 4.f#X 4.an 4.cc 4.ee-	[ >
(8cL	.	.	.
8E-J)	.	.	.
=	=	=	=
8rBB	4.EEE- 4.EE-	4.d-) 4.g 4.cc	.
(8GL	.	.	.
8E-J)	.	.	.
=	=	=	=
8rBB	4.AA-	(4e- 4a- 4cc	] mp <
(8A-L	.	.	.
8E-J)	.	8a- 8cc 8ee-	.
*v	*v	*	*
=	=	=
*-	*-	*-
!!!system-decoration: {(s1,s2)}
